static/img/bitcoin.svg

<?xml version="1.0" encoding="UTF-8" standalone="no"?>
<svg
   xmlns:dc="http://purl.org/dc/elements/1.1/"
   xmlns:cc="http://creativecommons.org/ns#"
   xmlns:rdf="http://www.w3.org/1999/02/22-rdf-syntax-ns#"
   xmlns:svg="http://www.w3.org/2000/svg"
   xmlns="http://www.w3.org/2000/svg"
   xmlns:sodipodi="http://sodipodi.sourceforge.net/DTD/sodipodi-0.dtd"
   xmlns:inkscape="http://www.inkscape.org/namespaces/inkscape"
   height="24"
   viewBox="0 0 24 24"
   width="24"
   version="1.1"
   id="svg8"
   sodipodi:docname="bitcoin.svg"
   inkscape:version="0.92.1 r15371">
  <metadata
     id="metadata14">
    <rdf:RDF>
      <cc:Work
         rdf:about="">
        <dc:format>image/svg+xml</dc:format>
        <dc:type
           rdf:resource="http://purl.org/dc/dcmitype/StillImage" />
      </cc:Work>
    </rdf:RDF>
  </metadata>
  <defs
     id="defs12" />
  <sodipodi:namedview
     pagecolor="#ffffff"
     bordercolor="#666666"
     borderopacity="1"
     objecttolerance="10"
     gridtolerance="10"
     guidetolerance="10"
     inkscape:pageopacity="0"
     inkscape:pageshadow="2"
     inkscape:window-width="1366"
     inkscape:window-height="744"
     id="namedview10"
     showgrid="false"
     inkscape:zoom="7.9999999"
     inkscape:cx="16.250365"
     inkscape:cy="10.158278"
     inkscape:window-x="0"
     inkscape:window-y="0"
     inkscape:window-maximized="1"
     inkscape:current-layer="svg8"
     showguides="true"
     inkscape:guide-bbox="true" />
  <path
     style="fill:#f7931a;fill-opacity:1;stroke:none;stroke-width:6.37392044;stroke-miterlimit:4;stroke-dasharray:none;stroke-opacity:1"
     d="M 0 0.11328125 L 0 24 L 24 24 L 24 0.11328125 L 0 0.11328125 z M 12.005859 2.0058594 C 12.117953 2.0391869 12.487287 2.1328416 12.826172 2.2128906 C 13.165057 2.2929391 13.486476 2.3966545 13.541016 2.4453125 C 13.595546 2.4940086 13.497344 3.0943677 13.324219 3.7773438 C 13.151092 4.4603327 13.009766 5.06601 13.009766 5.125 C 13.009766 5.1840554 13.286063 5.2879679 13.625 5.3574219 L 14.240234 5.4863281 L 14.351562 5.0898438 C 14.411651 4.8722085 14.561951 4.2720415 14.683594 3.7558594 C 14.843297 3.0783769 14.958252 2.817313 15.097656 2.8183594 C 15.337737 2.8201775 16.586735 3.1492343 16.669922 3.2324219 C 16.720751 3.283237 16.348794 5.0908701 16.142578 5.7929688 C 16.09736 5.9469052 16.331904 6.1159374 17.113281 6.4941406 C 18.919669 7.3684743 19.632185 8.3742341 19.511719 9.875 C 19.414498 11.086087 18.786893 12.065073 17.853516 12.457031 L 17.457031 12.623047 L 18.029297 13.050781 C 18.343592 13.285367 18.733929 13.726267 18.896484 14.03125 C 19.151131 14.509906 19.183915 14.713828 19.140625 15.513672 C 19.052637 17.14037 18.190809 18.528375 16.919922 19.09375 C 16.386683 19.330935 16.060278 19.384772 15.042969 19.388672 C 14.365199 19.391282 13.580253 19.349438 13.298828 19.298828 L 12.787109 19.207031 L 12.443359 20.625 C 12.059493 22.198933 12.141913 22.127618 11.007812 21.830078 C 10.553356 21.710855 10.298828 21.580331 10.298828 21.464844 C 10.298827 21.365829 10.440614 20.728059 10.613281 20.046875 C 10.785908 19.365704 10.908812 18.794997 10.888672 18.779297 C 10.792169 18.704323 9.7500437 18.488217 9.6835938 18.529297 C 9.6418678 18.555091 9.4769353 19.132453 9.3164062 19.8125 C 9.1558643 20.492546 8.9887256 21.104775 8.9472656 21.171875 C 8.8834626 21.275114 7.9768276 21.113742 7.2597656 20.873047 C 7.1591555 20.839274 7.220652 20.414175 7.46875 19.433594 C 7.7239635 18.425062 7.7805419 18.018638 7.6777344 17.955078 C 7.5997655 17.906879 6.8263292 17.690753 5.9570312 17.474609 C 4.1620872 17.028299 4.2621312 17.18504 4.8867188 15.792969 C 5.0784559 15.36561 5.2784043 15.016833 5.3320312 15.017578 C 5.3856978 15.018376 5.7311727 15.097732 6.0976562 15.195312 C 6.9130524 15.412332 7.1629965 15.30789 7.3300781 14.675781 C 8.291576 11.037995 9.2026319 7.0849646 9.1386719 6.8300781 C 9.0480679 6.4690881 8.5654645 6.1850314 7.8359375 6.0683594 C 7.5518961 6.0229333 7.2911754 5.9104414 7.2558594 5.8183594 C 7.2204916 5.726199 7.287494 5.2616017 7.4042969 4.7851562 C 7.5736675 4.0940576 7.6556814 3.9307742 7.8164062 3.9785156 C 8.4631511 4.1705142 11.074348 4.7941477 11.103516 4.7636719 C 11.122678 4.7436597 11.286286 4.102877 11.46875 3.3378906 C 11.74357 2.1856499 11.837012 1.9556329 12.005859 2.0058594 z M 12.833984 7.4648438 C 12.659249 7.4372277 12.538346 7.436378 12.509766 7.46875 C 12.464706 7.5198397 12.279333 8.1704657 12.097656 8.9160156 C 11.915976 9.6615653 11.739618 10.367322 11.705078 10.482422 C 11.639065 10.702517 12.047506 10.858789 13.255859 11.078125 C 13.947901 11.203743 14.91326 11.113516 15.359375 10.882812 C 15.769949 10.670501 16.157884 9.7627452 16.023438 9.3300781 C 15.861064 8.8076179 15.50603 8.42162 14.908203 8.1230469 C 14.375822 7.8571603 13.358191 7.5476788 12.833984 7.4648438 z M 11.208984 12.587891 C 11.11647 12.680405 10.302116 16.155091 10.353516 16.238281 C 10.406436 16.323901 11.734456 16.629611 12.761719 16.791016 C 13.258189 16.869023 14.270286 16.731403 14.708984 16.527344 C 15.457175 16.179303 15.7114 15.118002 15.230469 14.339844 C 14.903434 13.810674 13.816216 13.247269 12.388672 12.865234 C 11.75587 12.695914 11.225194 12.571661 11.208984 12.587891 z "
     id="rect4502" />
</svg>

<svg height="24" viewBox="0 0 24 24" width="24" xmlns="http://www.w3.org/2000/svg"><path d="m0 0.11328v23.887h24v-23.887h-24zm12.006 1.8926c0.11209 0.033328 0.48143 0.12698 0.82031 0.20703 0.33888 0.080048 0.6603 0.18376 0.71484 0.23242 0.05453 0.048696-0.043672 0.64906-0.2168 1.332-0.17313 0.68299-0.31445 1.2887-0.31445 1.3477 0 0.059055 0.2763 0.16297 0.61523 0.23242l0.61523 0.12891 0.11133-0.39648c0.060089-0.21764 0.21039-0.8178 0.33203-1.334 0.1597-0.67748 0.27466-0.93855 0.41406-0.9375 0.24008 0.0018181 1.4891 0.33087 1.5723 0.41406 0.050829 0.050815-0.32113 1.8584-0.52734 2.5605-0.045218 0.15394 0.18933 0.32297 0.9707 0.70117 1.8064 0.87433 2.5189 1.8801 2.3984 3.3809-0.097221 1.2111-0.72483 2.1901-1.6582 2.582l-0.39648 0.16602 0.57227 0.42773c0.3143 0.23459 0.70463 0.67549 0.86719 0.98047 0.25465 0.47866 0.28743 0.68258 0.24414 1.4824-0.087988 1.6267-0.94982 3.0147-2.2207 3.5801-0.53324 0.23718-0.85964 0.29102-1.877 0.29492-0.67777 0.00261-1.4627-0.039234-1.7441-0.089844l-0.51172-0.091797-0.34375 1.418c-0.38387 1.5739-0.30145 1.5026-1.4355 1.2051-0.45446-0.11922-0.70898-0.24975-0.70898-0.36523-1e-6 -0.099015 0.14179-0.73678 0.31445-1.418 0.17263-0.68117 0.29553-1.2519 0.27539-1.2676-0.096503-0.074974-1.1386-0.29108-1.2051-0.25-0.041726 0.025794-0.20666 0.60316-0.36719 1.2832-0.16054 0.68005-0.32768 1.2923-0.36914 1.3594-0.063803 0.10324-0.97044-0.058133-1.6875-0.29883-0.10061-0.033773-0.039114-0.45887 0.20898-1.4395 0.25521-1.0085 0.31179-1.415 0.20898-1.4785-0.077969-0.048199-0.85141-0.26432-1.7207-0.48047-1.7949-0.44631-1.6949-0.28957-1.0703-1.6816 0.19174-0.42736 0.39169-0.77614 0.44531-0.77539 0.053667 7.98e-4 0.39914 0.080154 0.76562 0.17773 0.8154 0.21702 1.0653 0.11258 1.2324-0.51953 0.9615-3.6378 1.8726-7.5908 1.8086-7.8457-0.090604-0.36099-0.57321-0.64505-1.3027-0.76172-0.28404-0.045426-0.54476-0.15792-0.58008-0.25-0.035368-0.09216 0.031635-0.55676 0.14844-1.0332 0.16937-0.6911 0.25138-0.85438 0.41211-0.80664 0.64674 0.192 3.2579 0.81563 3.2871 0.78516 0.019162-0.020012 0.18277-0.66079 0.36523-1.4258 0.27482-1.1522 0.36826-1.3823 0.53711-1.332zm0.82812 5.459c-0.17474-0.027616-0.29564-0.028466-0.32422 0.0039062-0.04506 0.05109-0.23043 0.70172-0.41211 1.4473-0.18168 0.74555-0.35804 1.4513-0.39258 1.5664-0.066013 0.2201 0.34243 0.37637 1.5508 0.5957 0.69204 0.12562 1.6574 0.035391 2.1035-0.19531 0.41057-0.21231 0.79851-1.1201 0.66406-1.5527-0.16237-0.52246-0.51741-0.90846-1.1152-1.207-0.53238-0.26589-1.55-0.57537-2.0742-0.6582zm-1.625 5.123c-0.092514 0.092514-0.90687 3.5672-0.85547 3.6504 0.05292 0.08562 1.3809 0.39133 2.4082 0.55274 0.49647 0.078007 1.5086-0.059613 1.9473-0.26367 0.74819-0.34804 1.0024-1.4093 0.52148-2.1875-0.32704-0.52917-1.4143-1.0926-2.8418-1.4746-0.6328-0.16932-1.1635-0.29357-1.1797-0.27734z" fill="#f7931a"/></svg>
